branding/mct2_m.svg

<?xml version="1.0" encoding="UTF-8" standalone="no"?>
<!-- Created with Inkscape (http://www.inkscape.org/) -->

<svg
   width="10mm"
   height="10mm"
   viewBox="0 0 10 10"
   version="1.1"
   id="svg5"
   xmlns="http://www.w3.org/2000/svg"
   xmlns:svg="http://www.w3.org/2000/svg">
  <defs
     id="defs2" />
  <g
     id="layer1">
    <g
       aria-label="M"
       transform="scale(1.0385739,0.96285879)"
       id="text9032"
       style="font-size:10.9915px;line-height:1.25;font-family:Heuristica;-inkscape-font-specification:'Heuristica, Normal';stroke-width:0.274789">
      <path
         d="M 0.01099149,8.9957294 H 2.615977 V 8.6769759 C 1.9015295,8.6220184 1.6377335,8.589044 1.5717845,8.127401 1.516827,7.7646815 1.494844,7.3470045 1.494844,6.764455 V 2.4008295 H 1.516827 L 4.352634,8.8638314 H 4.6494044 L 7.5181859,2.4008295 h 0.032974 V 7.97352 c 0,0.615524 -0.021983,0.6375069 -0.989235,0.7034559 V 8.9957294 H 9.6285539 V 8.6769759 C 8.6722934,8.6110269 8.6393189,8.589044 8.6393189,7.97352 V 2.411821 c 0,-0.615524 0.032974,-0.637507 0.989235,-0.703456 V 1.3896115 H 7.4192624 C 7.0455514,2.367855 6.5948999,3.335107 6.1552399,4.302359 l -1.31898,2.945722 H 4.8142769 L 3.51728,4.3133505 C 3.0886115,3.335107 2.6269685,2.367855 2.2312745,1.3896115 H 0 V 1.708365 c 0.96725198,0.065949 0.98923498,0.087932 0.98923498,0.703456 v 4.352634 c 0,0.5825495 -0.021983,1.0002265 -0.0769405,1.362946 -0.065949,0.461643 -0.32974499,0.5056089 -0.90130299,0.5495749 z"
         id="path10912" />
    </g>
  </g>
</svg>

<svg xmlns="http://www.w3.org/2000/svg" viewBox="0 0 10 10"><path d="M0 9h2.6v-.3q-1 0-1-.6l-.1-1.3V2.4l2.9 6.5h.2l3-6.5V8c0 .6 0 .6-1 .7V9h3v-.3c-1 0-1-.1-1-.7V2.4c0-.6 0-.6 1-.7v-.3H7.4L6.2 4.3l-1.4 3-1.3-3-1.3-3H0v.4c1 0 1 .1 1 .7v5.7q-.2.6-1 .6z" aria-label="M" font-family="Heuristica" font-size="11" style="line-height:1.25;-inkscape-font-specification:&quot;Heuristica, Normal&quot;" transform="scale(1.03857 .96286)"/></svg>
